public/cloud-icons/azure/data/shared-integration-runtime.svg

<?xml version="1.0" encoding="UTF-8" standalone="no"?>
<!-- Generated by Microsoft Visio, SVG Export Shared Integration Runtime.svg Page-1 -->

<svg
   xmlns:dc="http://purl.org/dc/elements/1.1/"
   xmlns:cc="http://creativecommons.org/ns#"
   xmlns:rdf="http://www.w3.org/1999/02/22-rdf-syntax-ns#"
   xmlns:svg="http://www.w3.org/2000/svg"
   xmlns="http://www.w3.org/2000/svg"
   xmlns:sodipodi="http://sodipodi.sourceforge.net/DTD/sodipodi-0.dtd"
   xmlns:inkscape="http://www.inkscape.org/namespaces/inkscape"
   width="56.693001"
   height="56.692902"
   viewBox="0 0 56.692999 56.692903"
   xml:space="preserve"
   class="st12"
   version="1.1"
   id="svg132"
   sodipodi:docname="Shared Integration Runtime.svg"
   style="font-size:12px;overflow:visible;color-interpolation-filters:sRGB;fill:none;fill-rule:evenodd;stroke-linecap:square;stroke-miterlimit:3"
   inkscape:version="0.92.5 (2060ec1f9f, 2020-04-08)"><metadata
   id="metadata136"><rdf:RDF><cc:Work
       rdf:about=""><dc:format>image/svg+xml</dc:format><dc:type
         rdf:resource="http://purl.org/dc/dcmitype/StillImage" /></cc:Work></rdf:RDF></metadata><sodipodi:namedview
   pagecolor="#ffffff"
   bordercolor="#666666"
   borderopacity="1"
   objecttolerance="10"
   gridtolerance="10"
   guidetolerance="10"
   inkscape:pageopacity="0"
   inkscape:pageshadow="2"
   inkscape:window-width="640"
   inkscape:window-height="480"
   id="namedview134"
   showgrid="false"
   inkscape:zoom="2.4486917"
   inkscape:cx="28.346461"
   inkscape:cy="14.173204"
   inkscape:window-x="0"
   inkscape:window-y="0"
   inkscape:window-maximized="0"
   inkscape:current-layer="svg132" />
	<style
   type="text/css"
   id="style2">
	<![CDATA[
		.st1 {fill:none;stroke:none;stroke-linecap:butt;stroke-width:0.48}
		.st2 {fill:url(#grad0-8);stroke:none;stroke-linecap:butt;stroke-width:0.48}
		.st3 {fill:#003067;stroke:none;stroke-linecap:butt;stroke-width:0.48}
		.st4 {fill:#50e6ff;stroke:none;stroke-linecap:butt;stroke-width:0.48}
		.st5 {fill:url(#grad0-20);stroke:none;stroke-linecap:butt;stroke-width:0.48}
		.st6 {fill:#ffffff;stroke:none;stroke-linecap:butt;stroke-width:0.48}
		.st7 {fill:#ffffff}
		.st8 {stroke:none;stroke-linecap:butt;stroke-width:0.48}
		.st9 {fill:#212121;stroke:none;stroke-linecap:butt;stroke-width:0.48}
		.st10 {fill:#76bc2d;stroke:none;stroke-linecap:butt;stroke-width:0.48}
		.st11 {fill:#76bc2d}
		.st12 {fill:none;fill-rule:evenodd;font-size:12px;overflow:visible;stroke-linecap:square;stroke-miterlimit:3}
	]]>
	</style>

	<defs
   id="Patterns_And_Gradients">
		<linearGradient
   id="grad0-8"
   x1="0"
   y1="31.130509"
   x2="42.73356"
   y2="31.130509"
   gradientTransform="scale(0.76638378,1.3048293)"
   gradientUnits="userSpaceOnUse">
			<stop
   offset="0"
   stop-color="#949494"
   stop-opacity="1"
   id="stop4" />
			<stop
   offset="0.53"
   stop-color="#a2a2a2"
   stop-opacity="1"
   id="stop6" />
			<stop
   offset="1"
   stop-color="#b3b3b3"
   stop-opacity="1"
   id="stop8" />
		</linearGradient>
		<linearGradient
   id="grad0-20"
   x1="0"
   y1="74.8346"
   x2="21.5434"
   y2="74.8346"
   gradientUnits="userSpaceOnUse">
			<stop
   offset="0"
   stop-color="#5e9624"
   stop-opacity="1"
   id="stop11" />
			<stop
   offset="0.255"
   stop-color="#619c25"
   stop-opacity="1"
   id="stop13" />
			<stop
   offset="0.51"
   stop-color="#76bc2d"
   stop-opacity="1"
   id="stop15" />
			<stop
   offset="0.91"
   stop-color="#86d633"
   stop-opacity="1"
   id="stop17" />
			<stop
   offset="1"
   stop-color="#86d633"
   stop-opacity="1"
   id="stop19" />
		</linearGradient>
	</defs>
	<g
   id="g130"
   transform="translate(-5.66929,-5.6693014)">
		<title
   id="title23">Page-1</title>
		<g
   id="group20497-1"
   transform="translate(5.66929,-34.0157)">
			<title
   id="title25">Shared Integration Runtime.20497</title>
			<g
   id="shape20498-2">
				<title
   id="title27">Sheet.20498</title>
				<rect
   x="0"
   y="39.685001"
   width="56.692902"
   height="56.692902"
   class="st1"
   id="rect29"
   style="fill:none;stroke:none;stroke-width:0.47999999;stroke-linecap:butt" />
			</g>
			<g
   id="group20499-4"
   transform="translate(11.9724,-0.933732)">
				<title
   id="title32">Sheet.20499</title>
				<g
   id="shape20500-5">
					<title
   id="title34">Sheet.20500</title>
					<path
   d="m 0,42.52 a 1.90035,1.90035 0 0 1 1.9,-1.9 h 29.01 a 1.86633,1.86633 0 0 1 1.84,1.9 v 51.96 a 1.90091,1.90091 0 0 1 -1.9,1.9 H 1.9 A 1.9338,1.9338 0 0 1 0,94.48 Z"
   class="st2"
   id="path36"
   inkscape:connector-curvature="0"
   style="fill:url(#grad0-8);stroke:none;stroke-width:0.47999999;stroke-linecap:butt" />
				</g>
				<g
   id="shape20501-9"
   transform="translate(4.40164,-32.6483)">
					<title
   id="title39">Sheet.20501</title>
					<path
   d="M 20.01,96.38 H 3.67 c -0.04,0 -0.07,0 -0.1,0 A 3.56825,3.56825 0 0 1 0,92.81 c 0,-0.03 0,-0.05 0,-0.07 a 3.56825,3.56825 0 0 1 3.67,-3.47 h 16.34 a 3.55181,3.55181 0 0 1 0,7.1 z"
   class="st3"
   id="path41"
   inkscape:connector-curvature="0"
   style="fill:#003067;stroke:none;stroke-width:0.47999999;stroke-linecap:butt" />
				</g>
				<g
   id="shape20502-11"
   transform="translate(4.40164,-43.2198)">
					<title
   id="title44">Sheet.20502</title>
					<path
   d="M 20.01,96.38 H 3.67 3.6 A 3.56825,3.56825 0 0 1 0,92.84 c 0,-0.03 0,-0.07 0,-0.1 a 3.56769,3.56769 0 0 1 3.67,-3.47 h 16.34 a 3.555,3.555 0 0 1 0,7.11 z"
   class="st3"
   id="path46"
   inkscape:connector-curvature="0"
   style="fill:#003067;stroke:none;stroke-width:0.47999999;stroke-linecap:butt" />
				</g>
				<g
   id="shape20503-13"
   transform="translate(21.8098,-44.3537)">
					<title
   id="title49">Sheet.20503</title>
					<circle
   cx="2.4009399"
   cy="93.976997"
   class="st4"
   id="ellipse51"
   r="2.4009399"
   style="fill:#50e6ff;stroke:none;stroke-width:0.47999999;stroke-linecap:butt" />
				</g>
				<g
   id="shape20504-15"
   transform="translate(21.8098,-33.8156)">
					<title
   id="title54">Sheet.20504</title>
					<circle
   cx="2.4009399"
   cy="93.976997"
   class="st4"
   id="ellipse56"
   r="2.4009399"
   style="fill:#50e6ff;stroke:none;stroke-width:0.47999999;stroke-linecap:butt" />
				</g>
			</g>
			<g
   id="shape20505-17"
   transform="translate(35.1496,-0.993827)">
				<title
   id="title60">Sheet.20505</title>
				<circle
   cx="10.7717"
   cy="85.6063"
   class="st5"
   id="ellipse62"
   r="10.7717"
   style="fill:url(#grad0-20);stroke:none;stroke-width:0.47999999;stroke-linecap:butt" />
			</g>
			<g
   id="shape20506-21"
   transform="translate(37.7274,-11.0081)">
				<title
   id="title65">Sheet.20506</title>
				<rect
   x="0"
   y="94.863098"
   width="2.0392399"
   height="1.51483"
   class="st6"
   id="rect67"
   style="fill:#ffffff;stroke:none;stroke-width:0.47999999;stroke-linecap:butt" />
			</g>
			<g
   id="shape20507-23"
   transform="translate(52.0764,-11.0081)">
				<title
   id="title70">Sheet.20507</title>
				<rect
   x="0"
   y="94.863098"
   width="2.0392399"
   height="1.51483"
   class="st6"
   id="rect72"
   style="fill:#ffffff;stroke:none;stroke-width:0.47999999;stroke-linecap:butt" />
			</g>
			<g
   id="shape20508-25"
   transform="translate(39.7474,-7.14728)">
				<title
   id="title75">Sheet.20508</title>
				<path
   d="M 6.69,96.33 V 93.12 H 3.4 V 87.19 L 1.52,87.2 A 1.53071,1.53071 -180 0 0 0,88.74 l 0.04,6.12 a 1.53071,1.53071 -180 0 0 1.53,1.52 h 0.01 z"
   class="st7"
   id="path77"
   inkscape:connector-curvature="0"
   style="fill:#ffffff" />
				<path
   d="M 6.69,96.33 V 93.12 H 3.4 V 87.19 L 1.52,87.2 A 1.53071,1.53071 -180 0 0 0,88.74 l 0.04,6.12 a 1.53071,1.53071 -180 0 0 1.53,1.52 h 0.01"
   class="st8"
   id="path79"
   inkscape:connector-curvature="0"
   style="stroke:none;stroke-width:0.47999999;stroke-linecap:butt" />
			</g>
			<g
   id="shape20509-28"
   transform="translate(45.504,-7.1932)">
				<title
   id="title82">Sheet.20509</title>
				<path
   d="m 0,87.23 v 3.57 h 3.3 v 5.58 L 5.07,96.37 A 1.53071,1.53071 -180 0 0 6.59,94.83 L 6.55,88.71 A 1.53071,1.53071 -180 0 0 5.02,87.19 H 5.01 Z"
   class="st7"
   id="path84"
   inkscape:connector-curvature="0"
   style="fill:#ffffff" />
				<path
   d="m 0,87.23 v 3.57 h 3.3 v 5.58 L 5.07,96.37 A 1.53071,1.53071 -180 0 0 6.59,94.83 L 6.55,88.71 A 1.53071,1.53071 -180 0 0 5.02,87.19 H 5.01"
   class="st8"
   id="path86"
   inkscape:connector-curvature="0"
   style="stroke:none;stroke-width:0.47999999;stroke-linecap:butt" />
			</g>
			<g
   id="group20510-31"
   transform="translate(32.514,-1.71609)">
				<title
   id="title89">Sheet.20510</title>
				<g
   id="shape20511-32">
					<title
   id="title91">Sheet.20511</title>
					<circle
   cx="11.2059"
   cy="85.171997"
   class="st6"
   id="ellipse93"
   r="11.2059"
   style="fill:#ffffff;stroke:none;stroke-width:0.47999999;stroke-linecap:butt" />
				</g>
				<g
   id="shape20512-34"
   transform="translate(1.70079,-2.07893)">
					<title
   id="title96">Sheet.20512</title>
					<path
   d="M 9.51,77.75 A 9.50513,9.50513 0 1 1 0,87.25 9.50457,9.50457 0 0 1 9.51,77.75 Z m 0,-3.41 A 12.9067,12.9067 -180 1 0 22.41,87.25 12.9209,12.9209 -180 0 0 9.51,74.34 Z"
   class="st9"
   id="path98"
   inkscape:connector-curvature="0"
   style="fill:#212121;stroke:none;stroke-width:0.47999999;stroke-linecap:butt" />
				</g>
			</g>
			<g
   id="group20513-36"
   transform="translate(35.6984,-8.2165)">
				<title
   id="title102">Sheet.20513</title>
				<g
   id="shape20514-37"
   transform="translate(0,-3.87269)">
					<title
   id="title104">Sheet.20514</title>
					<rect
   x="0"
   y="94.858597"
   width="2.04491"
   height="1.51937"
   class="st10"
   id="rect106"
   style="fill:#76bc2d;stroke:none;stroke-width:0.47999999;stroke-linecap:butt" />
				</g>
				<g
   id="shape20515-39"
   transform="translate(14.3887,-3.87269)">
					<title
   id="title109">Sheet.20515</title>
					<rect
   x="0"
   y="94.858597"
   width="2.04491"
   height="1.51937"
   class="st10"
   id="rect111"
   style="fill:#76bc2d;stroke:none;stroke-width:0.47999999;stroke-linecap:butt" />
				</g>
				<g
   id="shape20516-41"
   transform="translate(2.0245)">
					<title
   id="title114">Sheet.20516</title>
					<path
   d="M 6.71,96.33 V 93.11 H 3.4 V 87.16 L 1.52,87.18 A 1.53071,1.53071 -180 0 0 0,88.72 l 0.04,6.13 a 1.53468,1.53468 -180 0 0 1.53,1.53 h 0.01 z"
   class="st11"
   id="path116"
   inkscape:connector-curvature="0"
   style="fill:#76bc2d" />
					<path
   d="M 6.71,96.33 V 93.11 H 3.4 V 87.16 L 1.52,87.18 A 1.53071,1.53071 -180 0 0 0,88.72 l 0.04,6.13 a 1.53468,1.53468 -180 0 0 1.53,1.53 h 0.01"
   class="st8"
   id="path118"
   inkscape:connector-curvature="0"
   style="stroke:none;stroke-width:0.47999999;stroke-linecap:butt" />
				</g>
				<g
   id="shape20517-44"
   transform="translate(7.79868,-0.0493228)">
					<title
   id="title121">Sheet.20517</title>
					<path
   d="m 0,87.21 v 3.58 h 3.31 v 5.59 L 5.09,96.37 A 1.53071,1.53071 -180 0 0 6.61,94.82 L 6.57,88.69 A 1.53524,1.53524 -180 0 0 5.04,87.17 H 5.03 Z"
   class="st11"
   id="path123"
   inkscape:connector-curvature="0"
   style="fill:#76bc2d" />
					<path
   d="m 0,87.21 v 3.58 h 3.31 v 5.59 L 5.09,96.37 A 1.53071,1.53071 -180 0 0 6.61,94.82 L 6.57,88.69 A 1.53524,1.53524 -180 0 0 5.04,87.17 H 5.03"
   class="st8"
   id="path125"
   inkscape:connector-curvature="0"
   style="stroke:none;stroke-width:0.47999999;stroke-linecap:butt" />
				</g>
			</g>
		</g>
	</g>
</svg>

<svg xmlns="http://www.w3.org/2000/svg" xml:space="preserve" width="56.693" height="56.693" style="font-size:12px;overflow:visible;color-interpolation-filters:sRGB;fill-rule:evenodd;stroke-linecap:square;stroke-miterlimit:3" viewBox="0 0 56.693 56.693"><defs><linearGradient id="a" x1="0" x2="42.734" y1="31.131" y2="31.131" gradientTransform="scale(.76638 1.30483)" gradientUnits="userSpaceOnUse"><stop offset="0" stop-color="#949494"/><stop offset=".53" stop-color="#a2a2a2"/><stop offset="1" stop-color="#b3b3b3"/></linearGradient><linearGradient id="b" x1="0" x2="21.543" y1="74.835" y2="74.835" gradientUnits="userSpaceOnUse"><stop offset="0" stop-color="#5e9624"/><stop offset=".255" stop-color="#619c25"/><stop offset=".51" stop-color="#76bc2d"/><stop offset=".91" stop-color="#86d633"/><stop offset="1" stop-color="#86d633"/></linearGradient></defs><g transform="translate(-5.67 -5.67)"><title>Page-1</title><g transform="translate(5.67 -34.016)"><title>Shared Integration Runtime.20497</title><title>Sheet.20498</title><path d="M0 39.685h56.693v56.693H0z" style="fill:none;stroke:none;stroke-width:.47999999;stroke-linecap:butt"/><g transform="translate(11.972 -.934)"><title>Sheet.20499</title><title>Sheet.20500</title><path d="M0 42.52a1.9 1.9 0 0 1 1.9-1.9h29.01a1.866 1.866 0 0 1 1.84 1.9v51.96a1.9 1.9 0 0 1-1.9 1.9H1.9a1.934 1.934 0 0 1-1.9-1.9Z" style="fill:url(#a);stroke:none;stroke-width:.47999999;stroke-linecap:butt"/><g transform="translate(4.402 -32.648)"><title>Sheet.20501</title><path d="M20.01 96.38H3.57A3.57 3.57 0 0 1 0 92.81v-.07a3.57 3.57 0 0 1 3.67-3.47h16.34a3.552 3.552 0 0 1 0 7.1z" style="fill:#003067;stroke:none;stroke-width:.47999999;stroke-linecap:butt"/></g><g transform="translate(4.402 -43.22)"><title>Sheet.20502</title><path d="M20.01 96.38H3.6A3.57 3.57 0 0 1 0 92.84v-.1a3.57 3.57 0 0 1 3.67-3.47h16.34a3.555 3.555 0 0 1 0 7.11" style="fill:#003067;stroke:none;stroke-width:.47999999;stroke-linecap:butt"/></g><g transform="translate(21.81 -44.354)"><title>Sheet.20503</title><circle cx="2.401" cy="93.977" r="2.401" style="fill:#50e6ff;stroke:none;stroke-width:.47999999;stroke-linecap:butt"/></g><g transform="translate(21.81 -33.816)"><title>Sheet.20504</title><circle cx="2.401" cy="93.977" r="2.401" style="fill:#50e6ff;stroke:none;stroke-width:.47999999;stroke-linecap:butt"/></g></g><g transform="translate(35.15 -.994)"><title>Sheet.20505</title><circle cx="10.772" cy="85.606" r="10.772" style="fill:url(#b);stroke:none;stroke-width:.47999999;stroke-linecap:butt"/></g><g transform="translate(37.727 -11.008)"><title>Sheet.20506</title><path d="M0 94.863h2.039v1.515H0z" style="fill:#fff;stroke:none;stroke-width:.47999999;stroke-linecap:butt"/></g><g transform="translate(52.076 -11.008)"><title>Sheet.20507</title><path d="M0 94.863h2.039v1.515H0z" style="fill:#fff;stroke:none;stroke-width:.47999999;stroke-linecap:butt"/></g><g transform="translate(39.747 -7.147)"><title>Sheet.20508</title><path d="M6.69 96.33v-3.21H3.4v-5.93l-1.88.01A1.53 1.53-180 0 0 0 88.74l.04 6.12a1.53 1.53-180 0 0 1.53 1.52h.01z" style="fill:#fff"/><path d="M6.69 96.33v-3.21H3.4v-5.93l-1.88.01A1.53 1.53-180 0 0 0 88.74l.04 6.12a1.53 1.53-180 0 0 1.53 1.52h.01" style="stroke:none;stroke-width:.47999999;stroke-linecap:butt"/></g><g transform="translate(45.504 -7.193)"><title>Sheet.20509</title><path d="M0 87.23v3.57h3.3v5.58l1.77-.01a1.53 1.53-180 0 0 1.52-1.54l-.04-6.12a1.53 1.53-180 0 0-1.53-1.52h-.01Z" style="fill:#fff"/><path d="M0 87.23v3.57h3.3v5.58l1.77-.01a1.53 1.53-180 0 0 1.52-1.54l-.04-6.12a1.53 1.53-180 0 0-1.53-1.52h-.01" style="stroke:none;stroke-width:.47999999;stroke-linecap:butt"/></g><g transform="translate(32.514 -1.716)"><title>Sheet.20510</title><title>Sheet.20511</title><circle cx="11.206" cy="85.172" r="11.206" style="fill:#fff;stroke:none;stroke-width:.47999999;stroke-linecap:butt"/><g transform="translate(1.7 -2.079)"><title>Sheet.20512</title><path d="M9.51 77.75A9.505 9.505 0 1 1 0 87.25a9.505 9.505 0 0 1 9.51-9.5m0-3.41a12.907 12.907-180 1 0 12.9 12.91 12.92 12.92-180 0 0-12.9-12.91" style="fill:#212121;stroke:none;stroke-width:.47999999;stroke-linecap:butt"/></g></g><g transform="translate(35.698 -8.216)"><title>Sheet.20513</title><g transform="translate(0 -3.873)"><title>Sheet.20514</title><path d="M0 94.859h2.045v1.519H0z" style="fill:#76bc2d;stroke:none;stroke-width:.47999999;stroke-linecap:butt"/></g><g transform="translate(14.389 -3.873)"><title>Sheet.20515</title><path d="M0 94.859h2.045v1.519H0z" style="fill:#76bc2d;stroke:none;stroke-width:.47999999;stroke-linecap:butt"/></g><g transform="translate(2.025)"><title>Sheet.20516</title><path d="M6.71 96.33v-3.22H3.4v-5.95l-1.88.02A1.53 1.53-180 0 0 0 88.72l.04 6.13a1.535 1.535-180 0 0 1.53 1.53h.01z" style="fill:#76bc2d"/><path d="M6.71 96.33v-3.22H3.4v-5.95l-1.88.02A1.53 1.53-180 0 0 0 88.72l.04 6.13a1.535 1.535-180 0 0 1.53 1.53h.01" style="stroke:none;stroke-width:.47999999;stroke-linecap:butt"/></g><g transform="translate(7.799 -.05)"><title>Sheet.20517</title><path d="M0 87.21v3.58h3.31v5.59l1.78-.01a1.53 1.53-180 0 0 1.52-1.55l-.04-6.13a1.535 1.535-180 0 0-1.53-1.52h-.01Z" style="fill:#76bc2d"/><path d="M0 87.21v3.58h3.31v5.59l1.78-.01a1.53 1.53-180 0 0 1.52-1.55l-.04-6.13a1.535 1.535-180 0 0-1.53-1.52h-.01" style="stroke:none;stroke-width:.47999999;stroke-linecap:butt"/></g></g></g></g></svg>
